source/img/zigzag-line-desktop.svg

<svg width="1050" height="23" fill="none" xmlns="http://www.w3.org/2000/svg"><path d="M1050 23c-8.22 0-12.51-4.6-15.98-8.3-3.1-3.3-5.39-5.7-10.22-5.7-4.93 0-7.13 2.4-10.23 5.7-3.47 3.7-7.76 8.3-15.979 8.3-8.217 0-12.508-4.6-15.978-8.3-3.104-3.3-5.387-5.7-10.226-5.7-4.839 0-7.122 2.4-10.226 5.7-3.47 3.7-7.761 8.3-15.978 8.3-8.218 0-12.509-4.6-15.979-8.3-3.104-3.3-5.387-5.7-10.226-5.7-4.93 0-7.121 2.4-10.226 5.7-3.469 3.7-7.761 8.3-15.978 8.3-8.217 0-12.509-4.6-15.978-8.3-3.105-3.3-5.387-5.7-10.226-5.7-4.931 0-7.122 2.4-10.226 5.7-3.835 3.7-8.127 8.3-16.344 8.3s-12.509-4.6-15.978-8.3c-3.105-3.3-5.387-5.7-10.226-5.7-4.931 0-7.122 2.4-10.226 5.7-3.47 3.7-7.761 8.3-15.979 8.3-8.217 0-12.508-4.6-15.978-8.3-3.104-3.3-5.387-5.7-10.226-5.7-4.93 0-7.122 2.4-10.226 5.7-3.652 3.7-7.944 8.3-16.161 8.3-8.217 0-12.509-4.6-15.978-8.3-3.105-3.3-5.387-5.7-10.226-5.7-4.931 0-7.122 2.4-10.226 5.7-3.47 3.7-7.761 8.3-15.979 8.3-8.217 0-12.508-4.6-15.978-8.3-3.104-3.3-5.387-5.7-10.226-5.7-4.839 0-7.122 2.4-10.226 5.7C642.6 18.4 638.217 23 630 23c-8.217 0-12.509-4.6-15.978-8.3-3.105-3.3-5.387-5.7-10.226-5.7-4.931 0-7.122 2.4-10.226 5.7-3.47 3.7-7.761 8.3-15.979 8.3-8.217 0-12.508-4.6-15.978-8.3-3.104-3.3-5.387-5.7-10.226-5.7-4.93 0-7.122 2.4-10.226 5.7-3.47 3.7-7.761 8.3-15.978 8.3-8.218 0-12.509-4.6-15.979-8.3-3.104-3.3-5.387-5.7-10.226-5.7-4.839 0-7.121 2.4-10.226 5.7-3.469 3.7-7.761 8.3-15.978 8.3-8.217 0-12.509-4.6-15.978-8.3-3.105-3.3-5.387-5.7-10.226-5.7-4.931 0-7.122 2.4-10.227 5.7-3.469 3.7-7.76 8.3-15.978 8.3-8.217 0-12.508-4.6-15.978-8.3C401.283 11.4 399 9 394.161 9c-4.931 0-7.122 2.4-10.226 5.7-3.47 3.7-7.761 8.3-15.978 8.3-8.218 0-12.509-4.6-15.979-8.3-3.104-3.3-5.387-5.7-10.226-5.7-4.93 0-7.122 2.4-10.226 5.7-3.469 3.7-7.761 8.3-15.978 8.3-8.218 0-12.509-4.6-15.978-8.3-3.105-3.3-5.387-5.7-10.227-5.7-4.839 0-7.121 2.4-10.226 5.7-3.469 3.7-7.76 8.3-15.978 8.3-8.217 0-12.509-4.6-15.978-8.3-3.104-3.3-5.387-5.7-10.226-5.7-4.931 0-7.122 2.4-10.226 5.7-3.47 3.7-7.761 8.3-15.979 8.3-8.217 0-12.508-4.6-15.978-8.3-3.104-3.3-5.387-5.7-10.226-5.7-4.93 0-7.122 2.4-10.226 5.7-3.47 3.7-7.761 8.3-15.978 8.3-8.218 0-12.509-4.6-15.979-8.3-3.104-3.3-5.386-5.7-10.226-5.7-4.93 0-7.121 2.4-10.226 5.7C117.6 18.4 113.217 23 105 23c-8.217 0-12.509-4.6-15.978-8.3C85.917 11.4 83.635 9 78.796 9c-4.93 0-7.122 2.4-10.226 5.7C65.1 18.4 60.809 23 52.59 23c-8.217 0-12.508-4.6-15.978-8.3C33.417 11.4 31.135 9 26.296 9c-4.93 0-7.122 2.4-10.226 5.7C12.509 18.4 8.217 23 0 23v-9c4.93 0 7.122-2.4 10.226-5.7 3.47-3.7 7.761-8.3 16.07-8.3 8.217 0 12.508 4.6 15.978 8.3C45.378 11.6 47.66 14 52.5 14c4.93 0 7.122-2.4 10.226-5.7 3.47-3.7 7.852-8.3 16.07-8.3 8.217 0 12.508 4.6 15.978 8.3C97.878 11.6 100.16 14 105 14c4.93 0 7.122-2.4 10.226-5.7 3.47-3.7 7.761-8.3 15.978-8.3 8.218 0 12.509 4.6 15.979 8.3 3.104 3.3 5.387 5.7 10.226 5.7 4.93 0 7.121-2.4 10.226-5.7 3.469-3.7 7.761-8.3 15.978-8.3 8.217 0 12.509 4.6 15.978 8.3 3.105 3.3 5.387 5.7 10.226 5.7 4.931 0 7.122-2.4 10.226-5.7 3.47-3.7 7.761-8.3 15.979-8.3C244.239 0 248.53 4.6 252 8.3c3.104 3.3 5.387 5.7 10.226 5.7 4.931 0 7.122-2.4 10.226-5.7 3.47-3.7 7.761-8.3 15.978-8.3 8.218 0 12.509 4.6 15.979 8.3 3.104 3.3 5.387 5.7 10.226 5.7 4.93 0 7.122-2.4 10.226-5.7 3.469-3.7 7.761-8.3 15.978-8.3 8.218 0 12.509 4.6 15.978 8.3 3.105 3.3 5.387 5.7 10.226 5.7 4.84 0 7.122-2.4 10.227-5.7 3.469-3.7 7.76-8.3 15.978-8.3 8.217 0 12.509 4.6 15.978 8.3 3.104 3.3 5.387 5.7 10.226 5.7 4.931 0 7.122-2.4 10.226-5.7 3.47-3.7 7.761-8.3 15.979-8.3 8.217 0 12.508 4.6 15.978 8.3 3.104 3.3 5.387 5.7 10.226 5.7 4.93 0 7.122-2.4 10.226-5.7 3.47-3.7 7.761-8.3 15.978-8.3 8.218 0 12.509 4.6 15.979 8.3 3.104 3.3 5.386 5.7 10.226 5.7 4.93 0 7.121-2.4 10.226-5.7 3.469-3.7 7.761-8.3 15.978-8.3 8.217 0 12.509 4.6 15.978 8.3 3.105 3.3 5.387 5.7 10.226 5.7 4.931 0 7.122-2.4 10.226-5.7 3.47-3.7 7.761-8.3 15.979-8.3 8.217 0 12.508 4.6 15.978 8.3 3.104 3.3 5.387 5.7 10.226 5.7 4.93 0 7.122-2.4 10.226-5.7 3.47-3.7 7.761-8.3 15.978-8.3 8.218 0 12.509 4.6 15.979 8.3 3.104 3.3 5.387 5.7 10.226 5.7 4.93 0 7.121-2.4 10.226-5.7C695.191 4.6 699.483 0 707.7 0c8.217 0 12.509 4.6 15.978 8.3 3.105 3.3 5.387 5.7 10.226 5.7 4.931 0 7.122-2.4 10.226-5.7 4.566-3.7 8.857-8.3 17.166-8.3 8.217 0 12.508 4.6 15.978 8.3 3.104 3.3 5.387 5.7 10.226 5.7 4.839 0 7.122-2.4 10.226-5.7 3.47-3.7 7.761-8.3 15.978-8.3 8.218 0 12.509 4.6 15.979 8.3 3.104 3.3 5.387 5.7 10.226 5.7 4.839 0 7.121-2.4 10.226-5.7 3.561-3.7 7.852-8.3 16.161-8.3 8.308 0 12.508 4.6 15.978 8.3 3.104 3.3 5.387 5.7 10.226 5.7 4.839 0 7.122-2.4 10.226-5.7 3.47-3.7 7.761-8.3 15.978-8.3 8.218 0 12.509 4.6 15.979 8.3 3.104 3.3 5.387 5.7 10.226 5.7 4.93 0 7.121-2.4 10.226-5.7 3.469-3.7 7.761-8.3 15.978-8.3 8.217 0 12.509 4.6 15.978 8.3 3.105 3.3 5.387 5.7 10.226 5.7 4.843 0 7.123-2.4 10.223-5.7 3.47-3.7 7.76-8.3 15.98-8.3s12.51 4.6 15.98 8.3c3.1 3.3 5.39 5.7 10.23 5.7v9h.27z" fill="#F1F1F1"/></svg>

<svg width="1050" height="23" viewBox="0 0 1050 23" fill="none" xmlns="http://www.w3.org/2000/svg">
<path d="M1050 23C1041.78 23 1037.49 18.4 1034.02 14.7C1030.92 11.4 1028.63 9 1023.8 9C1018.87 9 1016.67 11.4 1013.57 14.7C1010.1 18.4 1005.81 23 997.591 23C989.374 23 985.083 18.4 981.613 14.7C978.509 11.4 976.226 9 971.387 9C966.548 9 964.265 11.4 961.161 14.7C957.691 18.4 953.4 23 945.183 23C936.965 23 932.674 18.4 929.204 14.7C926.1 11.4 923.817 9 918.978 9C914.048 9 911.857 11.4 908.752 14.7C905.283 18.4 900.991 23 892.774 23C884.557 23 880.265 18.4 876.796 14.7C873.691 11.4 871.409 9 866.57 9C861.639 9 859.448 11.4 856.344 14.7C852.509 18.4 848.217 23 840 23C831.783 23 827.491 18.4 824.022 14.7C820.917 11.4 818.635 9 813.796 9C808.865 9 806.674 11.4 803.57 14.7C800.1 18.4 795.809 23 787.591 23C779.374 23 775.083 18.4 771.613 14.7C768.509 11.4 766.226 9 761.387 9C756.457 9 754.265 11.4 751.161 14.7C747.509 18.4 743.217 23 735 23C726.783 23 722.491 18.4 719.022 14.7C715.917 11.4 713.635 9 708.796 9C703.865 9 701.674 11.4 698.57 14.7C695.1 18.4 690.809 23 682.591 23C674.374 23 670.083 18.4 666.613 14.7C663.509 11.4 661.226 9 656.387 9C651.548 9 649.265 11.4 646.161 14.7C642.6 18.4 638.217 23 630 23C621.783 23 617.491 18.4 614.022 14.7C610.917 11.4 608.635 9 603.796 9C598.865 9 596.674 11.4 593.57 14.7C590.1 18.4 585.809 23 577.591 23C569.374 23 565.083 18.4 561.613 14.7C558.509 11.4 556.226 9 551.387 9C546.457 9 544.265 11.4 541.161 14.7C537.691 18.4 533.4 23 525.183 23C516.965 23 512.674 18.4 509.204 14.7C506.1 11.4 503.817 9 498.978 9C494.139 9 491.857 11.4 488.752 14.7C485.283 18.4 480.991 23 472.774 23C464.557 23 460.265 18.4 456.796 14.7C453.691 11.4 451.409 9 446.57 9C441.639 9 439.448 11.4 436.343 14.7C432.874 18.4 428.583 23 420.365 23C412.148 23 407.857 18.4 404.387 14.7C401.283 11.4 399 9 394.161 9C389.23 9 387.039 11.4 383.935 14.7C380.465 18.4 376.174 23 367.957 23C359.739 23 355.448 18.4 351.978 14.7C348.874 11.4 346.591 9 341.752 9C336.822 9 334.63 11.4 331.526 14.7C328.057 18.4 323.765 23 315.548 23C307.33 23 303.039 18.4 299.57 14.7C296.465 11.4 294.183 9 289.343 9C284.504 9 282.222 11.4 279.117 14.7C275.648 18.4 271.357 23 263.139 23C254.922 23 250.63 18.4 247.161 14.7C244.057 11.4 241.774 9 236.935 9C232.004 9 229.813 11.4 226.709 14.7C223.239 18.4 218.948 23 210.73 23C202.513 23 198.222 18.4 194.752 14.7C191.648 11.4 189.365 9 184.526 9C179.596 9 177.404 11.4 174.3 14.7C170.83 18.4 166.539 23 158.322 23C150.104 23 145.813 18.4 142.343 14.7C139.239 11.4 136.957 9 132.117 9C127.187 9 124.996 11.4 121.891 14.7C117.6 18.4 113.217 23 105 23C96.7826 23 92.4913 18.4 89.0217 14.7C85.9174 11.4 83.6348 9 78.7957 9C73.8652 9 71.6739 11.4 68.5696 14.7C65.1 18.4 60.8087 23 52.5913 23C44.3739 23 40.0826 18.4 36.613 14.7C33.4174 11.4 31.1348 9 26.2957 9C21.3652 9 19.1739 11.4 16.0696 14.7C12.5087 18.4 8.21739 23 0 23V14C4.93044 14 7.12174 11.6 10.2261 8.3C13.6957 4.6 17.987 0 26.2957 0C34.513 0 38.8043 4.6 42.2739 8.3C45.3783 11.6 47.6609 14 52.5 14C57.4304 14 59.6217 11.6 62.7261 8.3C66.1956 4.6 70.5783 0 78.7957 0C87.013 0 91.3044 4.6 94.7739 8.3C97.8783 11.6 100.161 14 105 14C109.93 14 112.122 11.6 115.226 8.3C118.696 4.6 122.987 0 131.204 0C139.422 0 143.713 4.6 147.183 8.3C150.287 11.6 152.57 14 157.409 14C162.339 14 164.53 11.6 167.635 8.3C171.104 4.6 175.396 0 183.613 0C191.83 0 196.122 4.6 199.591 8.3C202.696 11.6 204.978 14 209.817 14C214.748 14 216.939 11.6 220.043 8.3C223.513 4.6 227.804 0 236.022 0C244.239 0 248.53 4.6 252 8.3C255.104 11.6 257.387 14 262.226 14C267.157 14 269.348 11.6 272.452 8.3C275.922 4.6 280.213 0 288.43 0C296.648 0 300.939 4.6 304.409 8.3C307.513 11.6 309.796 14 314.635 14C319.565 14 321.757 11.6 324.861 8.3C328.33 4.6 332.622 0 340.839 0C349.057 0 353.348 4.6 356.817 8.3C359.922 11.6 362.204 14 367.043 14C371.883 14 374.165 11.6 377.27 8.3C380.739 4.6 385.03 0 393.248 0C401.465 0 405.757 4.6 409.226 8.3C412.33 11.6 414.613 14 419.452 14C424.383 14 426.574 11.6 429.678 8.3C433.148 4.6 437.439 0 445.657 0C453.874 0 458.165 4.6 461.635 8.3C464.739 11.6 467.022 14 471.861 14C476.791 14 478.983 11.6 482.087 8.3C485.557 4.6 489.848 0 498.065 0C506.283 0 510.574 4.6 514.044 8.3C517.148 11.6 519.43 14 524.27 14C529.2 14 531.391 11.6 534.496 8.3C537.965 4.6 542.257 0 550.474 0C558.691 0 562.983 4.6 566.452 8.3C569.557 11.6 571.839 14 576.678 14C581.609 14 583.8 11.6 586.904 8.3C590.374 4.6 594.665 0 602.883 0C611.1 0 615.391 4.6 618.861 8.3C621.965 11.6 624.248 14 629.087 14C634.017 14 636.209 11.6 639.313 8.3C642.783 4.6 647.074 0 655.291 0C663.509 0 667.8 4.6 671.27 8.3C674.374 11.6 676.657 14 681.496 14C686.426 14 688.617 11.6 691.722 8.3C695.191 4.6 699.483 0 707.7 0C715.917 0 720.209 4.6 723.678 8.3C726.783 11.6 729.065 14 733.904 14C738.835 14 741.026 11.6 744.13 8.3C748.696 4.6 752.987 0 761.296 0C769.513 0 773.804 4.6 777.274 8.3C780.378 11.6 782.661 14 787.5 14C792.339 14 794.622 11.6 797.726 8.3C801.196 4.6 805.487 0 813.704 0C821.922 0 826.213 4.6 829.683 8.3C832.787 11.6 835.07 14 839.909 14C844.748 14 847.03 11.6 850.135 8.3C853.696 4.6 857.987 0 866.296 0C874.604 0 878.804 4.6 882.274 8.3C885.378 11.6 887.661 14 892.5 14C897.339 14 899.622 11.6 902.726 8.3C906.196 4.6 910.487 0 918.704 0C926.922 0 931.213 4.6 934.683 8.3C937.787 11.6 940.07 14 944.909 14C949.839 14 952.03 11.6 955.135 8.3C958.604 4.6 962.896 0 971.113 0C979.33 0 983.622 4.6 987.091 8.3C990.196 11.6 992.478 14 997.317 14C1002.16 14 1004.44 11.6 1007.54 8.3C1011.01 4.6 1015.3 0 1023.52 0C1031.74 0 1036.03 4.6 1039.5 8.3C1042.6 11.6 1044.89 14 1049.73 14V23H1050Z" fill="#F1F1F1"/>
</svg>
